X:37
T: GAR FROEHLICH TRET ICH IN DIE WELT
N: B0524
O: Europa, Mitteleuropa, Deutschland
R: Wander - Lied
M: 6/8
L: 1/16
K: C
E,F, | G,4G,2C4C2 | G,4G,2E4
E2 | D4D2F2D2B,2 | C6z4
E,F, | G,4G,2C4C2 | G,4G,2E4
E2 | D4D2D2C2A,2 | G,6z4
D2 | D4B,2G,4D2 | E4C2G,4
C2 | D4B,2G,4D2 | E6z4
E,F, | G,4G,2C4C2 | G,4G,2E4
E2 | D4D2B,2A,2B,2 | C6z4

